X: 1
T: Glencoe March, The
M: 4/4
L: 1/8
R: reel
K: Dmaj
F>G | A2 d2     F2 d2  | A>FA<d f2 fg/a/ | g3   e c>AB>c | d>cd>B A2F>G |
A2 d2     F2 d2  | A>FA<d f2 fg/a/ | g3   e c>AB>c | d2 d>c d2 :|f>g |
a2 a>g    f>df<a | g2 g>e c>Ac<e   | d>cd<e f>ef<a | g>fg<b a2f>g |
a2 a>g    f>df<a | g2 g>e c>Ac<e   | d>cd>f e<ac<e | d2 d>c d2f>g |
a2 a>g    f>df<a | g2 g>e c>Ac<e   | d>cd<e f>ef<a | g>fg<b a2f>g |
a/g/f g>e f>de<c | d>BA>F D>FA<d   | B>GB<d c>Ac<e | d2 d>c d2 |]
